X: 1
T: Waltz Pizz.
S: Bruce Sagan
S: handwritten MS of unknown origin labelled "NEFFA '93 1,A-9"
R: waltz
Z: 2007 John Chambers <jc:trillian.mit.edu>
M: 3/4
L: 1/8
K: D
|: a2 g2 ~f2 | d2 "+"ez "fine"z2 \
| a2 g2 f2 | d2 "+"ez "+"ez \
|  a2 g2 f2 | d2 (cd) ef |
| g2 (ec) (ec) | d4 d2 \
:: [B2D2] BG Bd | [B2D2] BG Bd \
| A2 Ad AF | D4 d2 |
|  c2 cd ef | g2 e2 c2 \
|1,3 dc de fg | a2 f2 d2 \
:|2,4 d3 e dc | d4 d2 :|
